X:199
T: Christi Geburt (3-3), S. 17
N: P0974
O: Lothringen
S: PINCK, Louis: Verklingende Weisen, Bd3, Metz 1933]
R: yyy]
M: 3/4
L: 1/16
K: F
F2G2 | A4A4G2GG | F8
c4 | d4c4c2B2 | A8
c4 | d6e2f2d2 | c6d2
c2B2 | A3AA4G4 | A6B2
A2G2 | F4F4c4 | e4c4
c2B2 | A4A4G2G2 | F8

@@@ Tune index: 7749
